x-pack/solutions/observability/plugins/apm/public/components/shared/span_icon/icons/sns.svg

<svg width="18" height="18" viewBox="0 0 18 18" fill="none" xmlns="http://www.w3.org/2000/svg">
<g clip-path="url(#clip0_1421_84660)">
<path d="M0 0H18V18H0V0Z" fill="url(#paint0_linear_1421_84660)"/>
<path d="M9.96657 7.43334L9.93324 7.5C9.93324 7.46723 9.93324 7.46723 9.96657 7.43334ZM7.86662 6.6C7.66665 6.6 5.76652 6.56667 5.76652 7.30003C5.76652 7.33336 5.76652 7.40002 5.79985 7.40002C5.79985 7.43334 5.83318 7.43334 5.79985 7.46667L7.09993 10.3333V11.8334C7.09993 11.9667 7.16659 12.0667 7.2999 12.0667H7.36655C7.67731 11.9972 7.96457 11.8479 8.1999 11.6334L8.36654 11.5334C8.43319 11.5001 8.49985 11.4001 8.46652 11.3334V10.3333L9.89991 7.46723C9.89991 7.43391 9.93324 7.43391 9.93324 7.40058C9.95501 7.37181 9.96672 7.33667 9.96657 7.30059C9.96657 6.6 8.09991 6.6 7.86662 6.6V6.6ZM7.86662 7.06673C8.69996 7.06673 9.26654 7.20005 9.46665 7.33392C9.26654 7.43391 8.73329 7.60111 7.86662 7.60111C6.99994 7.60111 6.46655 7.4678 6.29991 7.33392C6.46655 7.20005 6.99994 7.06673 7.86662 7.06673V7.06673ZM8.03326 10.1672V11.2673L7.93327 11.334C7.80731 11.3936 7.68486 11.4604 7.56652 11.534V10.3333C7.56876 10.3152 7.56693 10.2968 7.56116 10.2796C7.5554 10.2623 7.54584 10.2465 7.53319 10.2333L6.49988 7.93341C6.93827 8.02559 7.38532 8.07029 7.83329 8.06672C8.28128 8.07192 8.72846 8.0272 9.16655 7.93341L8.03326 10.1672ZM12.2333 13.2329C11.2892 13.9053 10.159 14.2667 8.99991 14.2667C6.3999 14.2667 4.16663 12.5667 3.63324 10.0667C3.86933 10.0479 4.09425 9.95828 4.27861 9.80961C4.46296 9.66093 4.59817 9.46009 4.66655 9.23334H5.86665V8.80008H4.66655C4.61388 8.56195 4.48402 8.34789 4.29716 8.19116C4.1103 8.03444 3.8769 7.94383 3.63324 7.93341C3.80806 7.22849 4.12008 6.56494 4.55147 5.98067C4.98286 5.3964 5.52516 4.90288 6.14738 4.5283C6.7696 4.15372 7.45954 3.90543 8.17776 3.79762C8.89598 3.68982 9.62841 3.7246 10.3332 3.9C10.9742 4.06273 11.5829 4.33326 12.1332 4.70001L12.4004 4.33341C11.7526 3.88678 11.0232 3.57214 10.2538 3.40746C9.48436 3.24278 8.69005 3.23128 7.91621 3.37362C7.14236 3.51596 6.40413 3.80935 5.74369 4.23704C5.08325 4.66472 4.51353 5.21832 4.06707 5.86622C3.60856 6.51561 3.29062 7.25354 3.1336 8.03283C2.87642 8.15621 2.67713 8.37455 2.57767 8.6419C2.47821 8.90924 2.48634 9.20475 2.60035 9.46622C2.71495 9.69754 2.90228 9.88487 3.1336 9.99947C3.40986 11.3496 4.14528 12.5624 5.21478 13.4315C6.28428 14.3006 7.62181 14.7724 8.99991 14.7667C10.2556 14.7591 11.4782 14.3633 12.4999 13.6334L12.2333 13.2329ZM2.99987 9.00005C2.99518 8.85079 3.04785 8.70541 3.14707 8.5938C3.24628 8.48219 3.38448 8.41284 3.53326 8.4H3.59991C3.71859 8.4 3.8346 8.43519 3.93328 8.50113C4.03196 8.56706 4.10887 8.66077 4.15428 8.77042C4.1997 8.88006 4.21158 9.00071 4.18843 9.11711C4.16528 9.23351 4.10813 9.34043 4.02421 9.42434C3.94029 9.50826 3.83337 9.56541 3.71698 9.58856C3.60058 9.61172 3.47993 9.59983 3.37029 9.55442C3.26064 9.509 3.16693 9.43209 3.10099 9.33341C3.03506 9.23474 2.99987 9.11872 2.99987 9.00005ZM14.3999 10.0667C14.6828 10.0667 14.9541 9.95431 15.1541 9.75427C15.3542 9.55424 15.4666 9.28294 15.4666 9.00005C15.4666 8.71716 15.3542 8.44585 15.1541 8.24582C14.9541 8.04578 14.6828 7.93341 14.3999 7.93341C14.1503 7.93588 13.9089 8.02293 13.7151 8.18035C13.5214 8.33777 13.3868 8.55625 13.3333 8.80008H12.0999V5.79998H12.7327C12.759 6.01099 12.8473 6.20944 12.9865 6.37024C13.1256 6.53105 13.3093 6.64698 13.5143 6.70337C13.7194 6.75977 13.9365 6.75409 14.1383 6.68707C14.3401 6.62005 14.5175 6.49469 14.6481 6.32684C14.7786 6.15899 14.8565 5.9562 14.8718 5.74411C14.887 5.53202 14.8391 5.32015 14.734 5.13531C14.6289 4.95047 14.4713 4.80096 14.2812 4.70568C14.0911 4.6104 13.877 4.57363 13.666 4.60003C13.4463 4.62356 13.24 4.71737 13.0778 4.86751C12.9157 5.01765 12.8063 5.2161 12.766 5.43337H11.866C11.8419 5.42675 11.8168 5.42495 11.792 5.42807C11.7672 5.43119 11.7433 5.43917 11.7216 5.45156C11.7 5.46394 11.6809 5.48049 11.6657 5.50025C11.6504 5.52001 11.6392 5.54258 11.6327 5.56669V8.76675H9.79993V9.20001H11.6333V12.3329C11.6325 12.3637 11.638 12.3944 11.6495 12.423C11.6609 12.4517 11.6781 12.4777 11.6999 12.4995C11.7217 12.5213 11.7477 12.5385 11.7764 12.5499C11.805 12.5614 11.8357 12.5669 11.8666 12.5662H12.6332C12.6761 12.7738 12.7795 12.9641 12.9305 13.113C13.0815 13.2619 13.2733 13.3626 13.4816 13.4025C13.6898 13.4424 13.9052 13.4197 14.1006 13.3371C14.2959 13.2546 14.4624 13.116 14.5789 12.9388C14.6955 12.7617 14.7569 12.554 14.7554 12.3419C14.7538 12.1299 14.6895 11.923 14.5704 11.7476C14.4514 11.5721 14.2829 11.4359 14.0865 11.3561C13.89 11.2764 13.6743 11.2567 13.4666 11.2995C13.259 11.3362 13.0677 11.4358 12.9187 11.5849C12.7696 11.7339 12.67 11.9252 12.6332 12.1327H12.0999V9.20001H13.3333C13.3751 9.44958 13.5065 9.67532 13.7028 9.83488C13.8992 9.99445 14.1471 10.0769 14.3999 10.0667V10.0667ZM14.3999 8.4C14.5186 8.4 14.6346 8.43519 14.7333 8.50113C14.832 8.56706 14.9089 8.66077 14.9543 8.77042C14.9997 8.88006 15.0116 9.00071 14.9884 9.11711C14.9653 9.23351 14.9081 9.34043 14.8242 9.42434C14.7403 9.50826 14.6334 9.56541 14.517 9.58856C14.4006 9.61172 14.2799 9.59983 14.1703 9.55442C14.0606 9.509 13.9669 9.43209 13.901 9.33341C13.8351 9.23474 13.7999 9.11872 13.7999 9.00005C13.7996 8.92116 13.8149 8.84299 13.8449 8.77004C13.8749 8.6971 13.9191 8.63083 13.9749 8.57504C14.0307 8.51926 14.097 8.47507 14.1699 8.44503C14.2429 8.41499 14.321 8.39968 14.3999 8.4V8.4ZM13.7999 5.06719C13.8794 5.06597 13.9584 5.08059 14.0323 5.11019C14.1062 5.1398 14.1734 5.1838 14.2301 5.23963C14.2868 5.29546 14.3318 5.36202 14.3625 5.43542C14.3933 5.50881 14.4091 5.58759 14.4091 5.66716C14.4091 5.74674 14.3933 5.82551 14.3625 5.89891C14.3318 5.97231 14.2868 6.03886 14.2301 6.0947C14.1734 6.15053 14.1062 6.19453 14.0323 6.22413C13.9584 6.25374 13.8794 6.26836 13.7999 6.26714C13.6423 6.26221 13.4926 6.19742 13.3811 6.08597C13.2697 5.97451 13.2049 5.82477 13.2 5.66723C13.1996 5.58831 13.2148 5.51009 13.2448 5.43709C13.2748 5.36409 13.3189 5.29776 13.3747 5.24192C13.4305 5.18609 13.4968 5.14187 13.5698 5.1118C13.6427 5.08174 13.7209 5.06643 13.7999 5.06676V5.06719ZM13.6666 11.7671C13.7461 11.7659 13.8251 11.7805 13.899 11.8101C13.9728 11.8397 14.0401 11.8837 14.0968 11.9396C14.1535 11.9954 14.1985 12.062 14.2292 12.1354C14.26 12.2088 14.2758 12.2875 14.2758 12.3671C14.2758 12.4467 14.26 12.5255 14.2292 12.5988C14.1985 12.6722 14.1535 12.7388 14.0968 12.7946C14.0401 12.8505 13.9728 12.8945 13.899 12.9241C13.8251 12.9537 13.7461 12.9683 13.6666 12.9671C13.5173 12.9718 13.372 12.9191 13.2604 12.8199C13.1487 12.7207 13.0794 12.5826 13.0665 12.4338V12.3672C13.0615 12.3202 13.0734 12.2729 13.1 12.2339C13.119 12.0993 13.1877 11.9767 13.2925 11.8902C13.3974 11.8038 13.5308 11.7597 13.6666 11.7667V11.7671Z" fill="white"/>
</g>
<defs>
<linearGradient id="paint0_linear_1421_84660" x1="-17.6768" y1="35.6766" x2="17.6786" y2="0.321233" gradientUnits="userSpaceOnUse">
<stop stop-color="#B0084D"/>
<stop offset="1" stop-color="#FF4F8B"/>
</linearGradient>
<clipPath id="clip0_1421_84660">
<rect width="18" height="18" fill="white"/>
</clipPath>
</defs>
</svg>

<svg xmlns="http://www.w3.org/2000/svg" width="18" height="18" fill="none"><g clip-path="url(#a)"><path fill="url(#b)" d="M0 0h18v18H0z"/><path fill="#fff" d="m9.967 7.433-.034.067c0-.033 0-.033.034-.067m-2.1-.833c-.2 0-2.1-.033-2.1.7 0 .033 0 .1.033.1 0 .033.033.033 0 .067l1.3 2.866v1.5c0 .134.067.234.2.234h.067c.31-.07.598-.22.833-.434l.167-.1c.066-.033.133-.133.1-.2v-1L9.9 7.467c0-.033.033-.033.033-.066a.17.17 0 0 0 .034-.1c0-.701-1.867-.701-2.1-.701m0 .467c.833 0 1.4.133 1.6.267-.2.1-.734.267-1.6.267s-1.4-.133-1.567-.267c.167-.134.7-.267 1.567-.267m.166 3.1v1.1l-.1.067q-.189.09-.366.2v-1.2a.12.12 0 0 0-.034-.1L6.5 7.933c.438.092.885.136 1.333.133q.674.007 1.334-.134zm4.2 3.066A5.57 5.57 0 0 1 9 14.267c-2.6 0-4.833-1.7-5.367-4.2a1.18 1.18 0 0 0 1.034-.834h1.2V8.8h-1.2a1.11 1.11 0 0 0-1.034-.867 5.53 5.53 0 0 1 6.7-4.033c.641.163 1.25.433 1.8.8l.267-.367a5.99 5.99 0 0 0-8.333 1.533 5.7 5.7 0 0 0-.933 2.167A1.1 1.1 0 0 0 2.6 9.466c.115.232.302.419.534.533A5.96 5.96 0 0 0 9 14.767a6.1 6.1 0 0 0 3.5-1.134zM3 9a.584.584 0 0 1 .533-.6H3.6A.6.6 0 1 1 3 9m11.4 1.067a1.066 1.066 0 1 0-.685-1.887 1.1 1.1 0 0 0-.382.62H12.1v-3h.633a1.074 1.074 0 1 0 .933-1.2 1.03 1.03 0 0 0-.9.833h-.9a.19.19 0 0 0-.233.134v3.2H9.8V9.2h1.833v3.133a.23.23 0 0 0 .143.217q.044.017.09.016h.767a1.073 1.073 0 1 0 .834-1.267 1.03 1.03 0 0 0-.834.834H12.1V9.2h1.233a1.04 1.04 0 0 0 1.067.867m0-1.667a.6.6 0 1 1 0 1.2.6.6 0 0 1 0-1.2m-.6-3.333a.6.6 0 1 1 0 1.2.62.62 0 0 1-.6-.6.597.597 0 0 1 .6-.6m-.133 6.7a.6.6 0 1 1 0 1.2.584.584 0 0 1-.6-.533v-.067a.2.2 0 0 1 .033-.133.544.544 0 0 1 .567-.467"/></g><defs><linearGradient id="b" x1="-17.677" x2="17.679" y1="35.677" y2=".321" gradientUnits="userSpaceOnUse"><stop stop-color="#B0084D"/><stop offset="1" stop-color="#FF4F8B"/></linearGradient><clipPath id="a"><path fill="#fff" d="M0 0h18v18H0z"/></clipPath></defs></svg>
